packages/icons/src/components/Icon/assets/small/list-number.svg

<svg width="16" height="16" viewBox="0 0 16 16" fill="none" xmlns="http://www.w3.org/2000/svg">
<path fill-rule="evenodd" clip-rule="evenodd" d="M5.46264 5.04288C5.46264 4.62867 5.79843 4.29288 6.21264 4.29288H12.125C12.5392 4.29288 12.875 4.62867 12.875 5.04288C12.875 5.45709 12.5392 5.79288 12.125 5.79288H6.21264C5.79843 5.79288 5.46264 5.45709 5.46264 5.04288ZM5.46264 8.00054C5.46264 7.58632 5.79843 7.25054 6.21264 7.25054H12.124C12.5382 7.25054 12.874 7.58632 12.874 8.00054C12.874 8.41475 12.5382 8.75054 12.124 8.75054H6.21264C5.79843 8.75054 5.46264 8.41475 5.46264 8.00054ZM5.46166 10.9562C5.46166 10.542 5.79744 10.2062 6.21166 10.2062H12.124C12.5382 10.2062 12.874 10.542 12.874 10.9562C12.874 11.3704 12.5382 11.7062 12.124 11.7062H6.21166C5.79744 11.7062 5.46166 11.3704 5.46166 10.9562Z" fill="#727683"/>
<path fill-rule="evenodd" clip-rule="evenodd" d="M3.125 3.93579C3.125 3.65965 3.34886 3.43579 3.625 3.43579H4.18027C4.45641 3.43579 4.68027 3.65965 4.68027 3.93579V5.2834H4.73357C5.00971 5.2834 5.23357 5.50726 5.23357 5.7834C5.23357 6.05955 5.00971 6.2834 4.73357 6.2834H3.625C3.34886 6.2834 3.125 6.05955 3.125 5.7834C3.125 5.50726 3.34886 5.2834 3.625 5.2834H3.68027V4.43579H3.625C3.34886 4.43579 3.125 4.21193 3.125 3.93579ZM4.2097 7.38476C4.20299 7.38203 4.19581 7.38067 4.18856 7.38076C4.18132 7.38086 4.17417 7.3824 4.16754 7.38529C4.1609 7.38819 4.15491 7.39239 4.14992 7.39764C3.95963 7.59774 3.64314 7.6057 3.44303 7.41541C3.24293 7.22512 3.23497 6.90863 3.42526 6.70853C3.52219 6.6066 3.63853 6.5251 3.76743 6.46883C3.89634 6.41255 4.0352 6.38264 4.17584 6.38085C4.31648 6.37906 4.45606 6.40543 4.58635 6.4584C4.71665 6.51138 4.83502 6.58989 4.93451 6.68932C5.034 6.78874 5.11259 6.90707 5.16565 7.03733C5.21871 7.16759 5.24516 7.30716 5.24346 7.4478C5.24176 7.58844 5.21193 7.72732 5.15574 7.85626C5.10049 7.98303 5.02085 8.09766 4.92139 8.19366L4.86075 8.25429C5.07555 8.31039 5.23406 8.50573 5.23406 8.7381C5.23406 9.01425 5.0102 9.2381 4.73406 9.2381H3.66984C3.4676 9.2381 3.28529 9.11628 3.2079 8.92945C3.13051 8.74261 3.17328 8.52755 3.31628 8.38455L4.22658 7.47425C4.23183 7.46925 4.23612 7.46337 4.23902 7.45673C4.24191 7.45009 4.24345 7.44294 4.24353 7.4357C4.24362 7.42846 4.24226 7.42127 4.23953 7.41457C4.2368 7.40786 4.23275 7.40177 4.22763 7.39665C4.22251 7.39153 4.21641 7.38749 4.2097 7.38476ZM3.125 9.84815C3.125 9.57201 3.34886 9.34815 3.625 9.34815H4.17928C4.4589 9.34815 4.72706 9.45923 4.92477 9.65694C5.12249 9.85466 5.23357 10.1228 5.23357 10.4024C5.23357 10.5996 5.17832 10.7911 5.07641 10.9562C5.17832 11.1213 5.23357 11.3128 5.23357 11.51C5.23357 11.7896 5.12249 12.0578 4.92477 12.2555C4.72706 12.4532 4.4589 12.5643 4.17928 12.5643H3.625C3.34886 12.5643 3.125 12.3404 3.125 12.0643C3.125 11.7882 3.34886 11.5643 3.625 11.5643H4.17928C4.19368 11.5643 4.20749 11.5586 4.21767 11.5484C4.22785 11.5382 4.23357 11.5244 4.23357 11.51C4.23357 11.4956 4.22785 11.4818 4.21767 11.4716C4.2091 11.4631 4.19597 11.4567 4.17928 11.4567H3.99452C3.71838 11.4567 3.49452 11.2329 3.49452 10.9567C3.49452 10.6806 3.71838 10.4567 3.99452 10.4567H4.17928C4.19368 10.4567 4.20749 10.451 4.21767 10.4408C4.22785 10.4306 4.23357 10.4168 4.23357 10.4024C4.23357 10.388 4.22785 10.3742 4.21767 10.364C4.20749 10.3539 4.19368 10.3481 4.17928 10.3481H3.625C3.34886 10.3481 3.125 10.1243 3.125 9.84815Z" fill="#727683"/>
</svg>

<svg xmlns="http://www.w3.org/2000/svg" width="16" height="16" fill="none" viewBox="0 0 16 16">
    <path fill="#727683" fill-rule="evenodd" d="M5.463 5.043a.75.75 0 0 1 .75-.75h5.912a.75.75 0 0 1 0 1.5H6.213a.75.75 0 0 1-.75-.75m0 2.958a.75.75 0 0 1 .75-.75h5.911a.75.75 0 0 1 0 1.5H6.213a.75.75 0 0 1-.75-.75m-.001 2.955a.75.75 0 0 1 .75-.75h5.912a.75.75 0 0 1 0 1.5H6.212a.75.75 0 0 1-.75-.75m-2.337-7.02a.5.5 0 0 1 .5-.5h.555a.5.5 0 0 1 .5.5v1.347h.054a.5.5 0 0 1 0 1H3.625a.5.5 0 1 1 0-1h.055v-.847h-.055a.5.5 0 0 1-.5-.5M4.21 7.385a.05.05 0 0 0-.06.013.5.5 0 0 1-.725-.69 1.054 1.054 0 1 1 1.496 1.486l-.06.06a.5.5 0 0 1-.127.984H3.67a.5.5 0 0 1-.354-.853l.91-.91a.05.05 0 0 0 .014-.06.05.05 0 0 0-.03-.03M3.125 9.848a.5.5 0 0 1 .5-.5h.554a1.054 1.054 0 0 1 .897 1.608 1.054 1.054 0 0 1-.897 1.608h-.554a.5.5 0 0 1 0-1h.554a.054.054 0 0 0 .039-.092.05.05 0 0 0-.039-.015h-.184a.5.5 0 1 1 0-1h.184a.054.054 0 1 0 0-.109h-.554a.5.5 0 0 1-.5-.5" clip-rule="evenodd"/>
</svg>
